Catalina-light/actions/16/go-bottom.svg

<svg xmlns="http://www.w3.org/2000/svg" width="16" height="16" viewBox="0 0 16 16">
 <defs>
  <style id="current-color-scheme" type="text/css">
   .ColorScheme-Text { color:#5c616c; } .ColorScheme-Highlight { color:#5294e2; }
  </style>
 </defs>
 <path style="fill:currentColor" class="ColorScheme-Text" d="M 7 -0.00390625 L 6.96875 7.4648438 L 3.34375 3.8085938 L 1.96875 5.2148438 L 8 11.214844 L 14 5.2148438 L 12.625 3.8085938 L 8.96875 7.4648438 L 9 -0.00390625 L 7 -0.00390625 z M 8 11.996094 C 6.89543 11.996094 6 12.891524 6 13.996094 C 6 15.100664 6.89543 15.996094 8 15.996094 C 9.10457 15.996094 10 15.100664 10 13.996094 C 10 12.891494 9.10457 11.996094 8 11.996094 z"/>
</svg>

<svg width="16" height="16" viewBox="0 0 16 16" xmlns="http://www.w3.org/2000/svg">
<defs>
<style id="current-color-scheme" type="text/css">.ColorScheme-Text { color:#5c616c; } .ColorScheme-Highlight { color:#5294e2; }</style>
</defs>
<path class="ColorScheme-Text" d="m7-0.0039062-0.03125 7.4688-3.625-3.6562-1.375 1.4062 6.0312 6 6-6-1.375-1.4062-3.6562 3.6562 0.03125-7.4688h-2zm1 12c-1.1046 0-2 0.89543-2 2s0.89543 2 2 2 2-0.89543 2-2c0-1.1046-0.89543-2-2-2z" fill="currentColor"/>
</svg>
